X: 2268
T: Baby Dragon
R: reel
M: 4/4
K: Emajor
eB~B2 efgb|g3a gfeg|fec2 Bcef|fefa gfed|
eB~B2 efgb|g3a gfeg|fec2 Bcef|fefg e4 :|
K: Emin
EFGB EFGB|EFGc EFGc|AD D/D/D ADFA|dBAG FDFG|
EFGB EFGB|EFGc EFGc|1 AFAB defg|fdAG GFED :|2 AFAB defg|fdBd e4||

